packages/react/src/components/base/Icon/assets/icon-cow.svg

<svg width="24" height="24" viewBox="0 0 24 24" xmlns="http://www.w3.org/2000/svg" fill="currentColor"> <g clip-path="url(#clip0_2087_4421)"> <path d="M11.2475 12.3755C11.2475 12.6722 11.1596 12.9622 10.9947 13.2088C10.8299 13.4555 10.5956 13.6478 10.3216 13.7613C10.0475 13.8748 9.74586 13.9045 9.45489 13.8467C9.16392 13.7888 8.89665 13.6459 8.68687 13.4361C8.47709 13.2264 8.33423 12.9591 8.27635 12.6681C8.21847 12.3772 8.24818 12.0756 8.36171 11.8015C8.47524 11.5274 8.6675 11.2931 8.91417 11.1283C9.16085 10.9635 9.45086 10.8755 9.74753 10.8755C10.1454 10.8755 10.5269 11.0335 10.8082 11.3148C11.0895 11.5961 11.2475 11.9777 11.2475 12.3755ZM14.2475 10.8755C13.9509 10.8755 13.6608 10.9635 13.4142 11.1283C13.1675 11.2931 12.9752 11.5274 12.8617 11.8015C12.7482 12.0756 12.7185 12.3772 12.7764 12.6681C12.8342 12.9591 12.9771 13.2264 13.1869 13.4361C13.3966 13.6459 13.6639 13.7888 13.9549 13.8467C14.2459 13.9045 14.5475 13.8748 14.8216 13.7613C15.0956 13.6478 15.3299 13.4555 15.4947 13.2088C15.6596 12.9622 15.7475 12.6722 15.7475 12.3755C15.7475 11.9777 15.5895 11.5961 15.3082 11.3148C15.0269 11.0335 14.6454 10.8755 14.2475 10.8755ZM23.1988 12.0624C23.023 12.2774 22.8015 12.4507 22.5506 12.5697C22.2996 12.6887 22.0253 12.7504 21.7475 12.7505H19.1225V16.0364C19.7373 16.4744 20.1971 17.0962 20.4356 17.8123C20.674 18.5285 20.6789 19.3018 20.4495 20.0209C20.2201 20.74 19.7682 21.3676 19.159 21.8132C18.5498 22.2589 17.8148 22.4995 17.06 22.5005H6.93503C6.18024 22.4995 5.44526 22.2589 4.83608 21.8132C4.22689 21.3676 3.775 20.74 3.54556 20.0209C3.31613 19.3018 3.32101 18.5285 3.5595 17.8123C3.79799 17.0962 4.25777 16.4744 4.87253 16.0364V12.7505H2.24753C1.97102 12.7502 1.69799 12.6888 1.44801 12.5706C1.19803 12.4524 0.977282 12.2804 0.801582 12.0669C0.625882 11.8534 0.499579 11.6037 0.431724 11.3356C0.363868 11.0676 0.35614 10.7878 0.409091 10.5164C0.646011 9.35152 1.24501 8.29128 2.12052 7.48715C2.99604 6.68302 4.10328 6.17615 5.28409 6.03893C4.53096 5.0604 4.12258 3.86028 4.12253 2.62549C4.12253 2.32712 4.24105 2.04097 4.45203 1.82999C4.66301 1.61901 4.94916 1.50049 5.24753 1.50049C5.5459 1.50049 5.83205 1.61901 6.04302 1.82999C6.254 2.04097 6.37253 2.32712 6.37253 2.62549C6.37253 3.52059 6.72811 4.37904 7.36104 5.01197C7.99398 5.64491 8.85242 6.00049 9.74753 6.00049H14.2475C15.1426 6.00049 16.0011 5.64491 16.634 5.01197C17.2669 4.37904 17.6225 3.52059 17.6225 2.62549C17.6225 2.32712 17.7411 2.04097 17.952 1.82999C18.163 1.61901 18.4492 1.50049 18.7475 1.50049C19.0459 1.50049 19.332 1.61901 19.543 1.82999C19.754 2.04097 19.8725 2.32712 19.8725 2.62549C19.8736 3.85984 19.4665 5.05992 18.7147 6.03893C19.8955 6.17615 21.0028 6.68302 21.8783 7.48715C22.7538 8.29128 23.3528 9.35152 23.5897 10.5164C23.6436 10.787 23.6365 11.0661 23.5689 11.3336C23.5013 11.601 23.3748 11.85 23.1988 12.0624ZM7.12253 15.3755H16.8725V10.1255C16.8725 9.62821 16.675 9.15129 16.3234 8.79966C15.9717 8.44803 15.4948 8.25049 14.9975 8.25049H8.99753C8.50025 8.25049 8.02333 8.44803 7.6717 8.79966C7.32007 9.15129 7.12253 9.62821 7.12253 10.1255V15.3755ZM5.2944 8.31049C4.71493 8.42163 4.17451 8.68214 3.72661 9.06625C3.27871 9.45035 2.93885 9.94473 2.74065 10.5005H4.87253V10.1255C4.87191 9.49612 5.01626 8.87506 5.2944 8.31049ZM18.3725 18.938C18.3725 18.5899 18.2342 18.2561 17.9881 18.0099C17.742 17.7638 17.4081 17.6255 17.06 17.6255H6.93503C6.58693 17.6255 6.25309 17.7638 6.00695 18.0099C5.76081 18.2561 5.62253 18.5899 5.62253 18.938C5.62253 19.2861 5.76081 19.6199 6.00695 19.8661C6.25309 20.1122 6.58693 20.2505 6.93503 20.2505H17.06C17.4081 20.2505 17.742 20.1122 17.9881 19.8661C18.2342 19.6199 18.3725 19.2861 18.3725 18.938ZM21.2544 10.5005C21.0562 9.94473 20.7163 9.45035 20.2684 9.06625C19.8206 8.68214 19.2801 8.42163 18.7007 8.31049C18.9788 8.87506 19.1231 9.49612 19.1225 10.1255V10.5005H21.2544Z"/> </g> <defs> <clipPath id="clip0_2087_4421"> <rect width="24" height="24"/> </clipPath> </defs> </svg>

<svg viewBox="0 0 24 24" xmlns="http://www.w3.org/2000/svg" aria-hidden="true" fill="currentColor"><g clip-path="url(#a)"><path d="M11.248 12.376a1.499 1.499 0 1 1-2.998 0 1.499 1.499 0 0 1 2.998 0m3-1.5a1.5 1.5 0 1 0 0 3 1.5 1.5 0 0 0 0-3m8.95 1.186a1.88 1.88 0 0 1-1.45.689h-2.626v3.285A3.563 3.563 0 0 1 17.06 22.5H6.935a3.563 3.563 0 0 1-2.062-6.464V12.75H2.248a1.875 1.875 0 0 1-1.839-2.234A5.64 5.64 0 0 1 5.284 6.04a5.6 5.6 0 0 1-1.161-3.414 1.125 1.125 0 1 1 2.25 0A3.375 3.375 0 0 0 9.748 6h4.5a3.375 3.375 0 0 0 3.374-3.375 1.125 1.125 0 0 1 2.25 0 5.6 5.6 0 0 1-1.157 3.414 5.64 5.64 0 0 1 4.875 4.477 1.86 1.86 0 0 1-.391 1.546M7.124 15.376h9.75v-5.25a1.875 1.875 0 0 0-1.876-1.876h-6a1.875 1.875 0 0 0-1.874 1.876zM5.294 8.31a3.39 3.39 0 0 0-2.553 2.19h2.132v-.374c-.001-.63.143-1.25.421-1.816m13.079 10.628a1.313 1.313 0 0 0-1.313-1.312H6.935a1.313 1.313 0 0 0 0 2.624H17.06a1.313 1.313 0 0 0 1.313-1.312m2.881-8.437a3.39 3.39 0 0 0-2.553-2.19c.278.564.422 1.185.421 1.815v.375z"/></g><defs><clipPath id="a"><path d="M0 0h24v24H0z"/></clipPath></defs></svg>
